www/assets/icons/launch.svg

<svg xmlns="http://www.w3.org/2000/svg" width="24" height="24" viewBox="0 0 24 24" fill='currentColor'><path d="M19 19H5V5h7V3H5a2 2 0 0 0-2 2v14a2 2 0 0 0 2 2h14c1.1 0 2-.9 2-2v-7h-2zM14 3v2h3.59l-9.83 9.83 1.41 1.41L19 6.41V10h2V3z"/></svg>

<svg width="24" height="24" viewBox="0 0 24 24" xmlns="http://www.w3.org/2000/svg" fill='currentColor'><path d="M19 19H5V5H12V3H5C3.89 3 3 3.9 3 5V19C3 20.1 3.89 21 5 21H19C20.1 21 21 20.1 21 19V12H19V19ZM14 3V5H17.59L7.76 14.83L9.17 16.24L19 6.41V10H21V3H14Z"/></svg>
